X: 4005
T: Blacktown
R: jig
M: 6/8
K: Eminor
|:"Em"B2G EGE|B2E GFE|"D"A2D FED|FAD F2D|
"Em"E3 BEG|EBE G2E|"D"F3 FED|FED "Em"E3:|
|:"Em"E3 AEB|E3 AEB|"C"E3 AEB|BAG AGF|
"Am"E3 AEB|E3 AEB|"C"BAG AGF|"Em"GED E3:|
|:"Em"B3 BAG|"D"FGF FED|"G"B3 BAG|"Am"A>BA ABD|
"Em"E3 EFG|"D"AGF D2F|"C"BAG AGF|"Em"GFD E3:|

